X:198
T:Cavylilly Man. (p)1670.PLFD.198
M:4/4
L:1/8
Q:1/2=90
S:Playford, Dancing Master,4th Ed.,1670.
O:England
N:Also given time sig of 6/4 from edition 9 on.
H:1670.
Z:Chris Partington
K:C
f3fe2d2|d>ef2A4|A>Bc2c3c|f>gf2e>dc2|
f2f2e3d|d>ef2A4|_B>AG2A3A|A>Bc2d4:|
